X: 31
T: Peggy Perkins
%R: reel
B: Urbani & Liston "A Selection of Scotch, English Irish, and Foreign Airs", Edinburgh 1800, p.13 #1
F: http://www.vwml.org/browse/browse-collections-dance-tune-books/browse-urbani1800
Z: 2014 John Chambers <jc:trillian.mit.edu>
N: The strains' rhythms are incorrect at their boundaries; not fixed.
M: 2/4
L: 1/16
K: D
A2 |\
dedA fgfd | a2a2a2f2 | gage fgfd | e2e2e2A2 |\
dedA fgfd | a2a2a2f2 | gage faec | d2d2d4 :|
|:\
ABcd efge | f2d2d4 | gage fgfd | cdec A4 |\
ABcd efge | f2d2d4 | fgae cdec | d2d2 d4 :|

%%sep 1 1 500
%%sep 1 1 500
